src/assets/icons/instagram.svg

<svg width="18" height="17" viewBox="0 0 18 17" fill="none" xmlns="http://www.w3.org/2000/svg">
<path opacity="0.7" fill-rule="evenodd" clip-rule="evenodd" d="M15.7494 0.0625H1.84438C1.03438 0.0625 0.359375 0.7375 0.359375 1.5475V5.68188H5.97875C6.8225 5.07438 7.71688 4.55125 8.79688 4.55125C9.84313 4.55125 10.7881 5.07438 11.615 5.68188H17.2344V1.5475C17.2344 0.7375 16.5594 0.0625 15.7494 0.0625ZM16.1038 3.9775C16.1038 4.29812 15.8506 4.56812 15.53 4.56812H13.3194C12.9987 4.56812 12.7288 4.29812 12.7288 3.9775V1.76688C12.7288 1.44625 12.9987 1.19313 13.3194 1.19313H15.53C15.8506 1.19313 16.1038 1.44625 16.1038 1.76688V3.9775ZM11.615 9.05688C11.615 7.50438 10.3494 6.25562 8.79688 6.25562C7.24438 6.25562 5.97875 7.50438 5.97875 9.05688C5.97875 10.6094 7.24438 11.875 8.79688 11.875C10.3494 11.875 11.615 10.6094 11.615 9.05688ZM13.1 7.94312C13.2013 8.28062 13.235 8.635 13.235 8.98938C13.235 11.4531 11.2437 13.4444 8.79688 13.4444C6.35 13.4444 4.35875 11.4531 4.35875 8.98938C4.35875 8.635 4.3925 8.28062 4.49375 7.94312H0.359375V15.4525C0.359375 16.2625 1.03438 16.9375 1.84438 16.9375H15.7494C16.5594 16.9375 17.2344 16.2625 17.2344 15.4525V7.94312H13.1Z" fill="#3D3D3D"/>
</svg>

<svg width="18" height="17" fill="none" xmlns="http://www.w3.org/2000/svg"><path opacity=".7" fill-rule="evenodd" clip-rule="evenodd" d="M15.75.063H1.843C1.034.063.36.738.36 1.548v4.134h5.62c.843-.608 1.738-1.13 2.818-1.13 1.046 0 1.991.522 2.818 1.13h5.62V1.547c0-.81-.676-1.484-1.486-1.484zm.354 3.914c0 .321-.253.591-.574.591h-2.21c-.321 0-.591-.27-.591-.59V1.767c0-.32.27-.574.59-.574h2.211a.57.57 0 0 1 .574.574v2.21zm-4.489 5.08a2.809 2.809 0 0 0-2.818-2.801 2.809 2.809 0 0 0-2.818 2.8 2.823 2.823 0 0 0 2.818 2.819 2.823 2.823 0 0 0 2.818-2.818zM13.1 7.943c.101.338.135.692.135 1.046a4.447 4.447 0 0 1-4.438 4.455A4.447 4.447 0 0 1 4.359 8.99c0-.354.034-.708.135-1.046H.359v7.51c0 .81.675 1.485 1.485 1.485H15.75c.81 0 1.485-.675 1.485-1.485v-7.51H13.1z" fill="#3D3D3D"/></svg>
